images/icons/up-arrow.svg

<svg fill="none" height="24" viewBox="0 0 24 24" width="24" xmlns="http://www.w3.org/2000/svg" xmlns:xlink="http://www.w3.org/1999/xlink"><mask id="a" height="24" maskUnits="userSpaceOnUse" width="24" x="0" y="0"><path d="m0 0h24v24h-24z" fill="#d9d9d9"/></mask><g mask="url(#a)"><path d="m11.5 17.3077v-9.8922l-4.09999 4.1-.70775-.7077 5.30774-5.3078 5.3078 5.3078-.7078.7077-4.1-4.1v9.8922z" fill="#3e3691"/></g></svg>

<svg width="24" height="24" viewBox="0 0 24 24" fill="none" xmlns="http://www.w3.org/2000/svg">
<mask id="mask0_356_271" style="mask-type:alpha" maskUnits="userSpaceOnUse" x="0" y="0" width="24" height="24">
<rect width="24" height="24" fill="#D9D9D9"/>
</mask>
<g mask="url(#mask0_356_271)">
<path d="M11.5 17.3077V7.4155L7.40001 11.5155L6.69226 10.8078L12 5.5L17.3078 10.8078L16.6 11.5155L12.5 7.4155V17.3077H11.5Z" fill="#3E3691"/>
</g>
</svg>
